X:19024
T:Star of Munster, The
R:Reel
C:Trad. O'Neills
O:Ireland
M:4/4
L:1/8
Q:1/8=260
K:Em
ed|"Am"c2Ac "Em"B2GB|"Am"AGEF "G"GED2|"Am"EAAB cBcd|eaaf "Em"gfed|
"Am"cAA2 "Em"BAGB|"Am"AGEF "G"GED2|"Am"EAAB cded|cABG A2 z2||
"Am"eaab "Em"ageg|agbg "Am"agef|"Em"gfga gfef|geaf gfed|
"Am"eaab "Em"ageg|agbg "Am"agef|"Em"g2ge "D"a2af|"Em"b2ba gfed|]

